X:1
T:Tobacco Union
M:4/4
L:1/4
K:G
 G| B B G G| B B d d| c c A A| B c d| D| G A B d| g g d d| f e d c|\
 d d A| A| B G F D| G2 G|

